X:1262
T:the Green Linnet
R:reel
B:O'Neill's 1850 #1262
O:J.O'Neill
Z:1997 Trish O'Neil
Z:This tune had only 4 bars, so I transcribed the rest [2021 John Chambers]
M:C|
L:1/8
K:A
|: A2T(ae) cBAc | BAGB gdBG | A2T(ae) cBAc | BGdB TcAAB :| ABcd ecBA | BGBd gdBG |
| ABcd ecBA | (BG)dB (cA)AB || ABcd ecBA | BGBd gdBG | (Ac)(Bd) (ce)(df) | edcB cAAB |]
